X:6
T:Australian Waters
R:jig
D:Tommy Peoples's - Waiting for a Call, Shanachie 2003
Z:Paul Stewart Cranford (P.S.C.), <http://www.cranfordpub.com>
L:1/8
Q:288
M:6/8
K:D
dAG FED|~=c2 e {g/a/g}ed^c|dAF GFE|FED gfe|
dAG FED|~=c2 e {g/a/g}ed^c|dAF GFE|DCE D2 z|
~d3 FED|~=c2 e ed^c|dAF GFE|{A/G/}F<FD gfe|
dAG FED|~=c3 {g/a/g}ed^c|dAF GFE|DCE D2 z||
||~d3 efg|fed cBA|{e}d/d/d f efg|fdd def|
~g2 g ~f2 f|ecA ABc|dAF GFE|DCE D2 z|
~d3 efg|fed cBA|{e}d/d/d A efg|fdd dfd|
~g2 a faf|ecA ABc|dAF GFE|FED gfe|]
